X: 294
T: The Little Waist
%R: strathspey
Z: 2014 John Chambers <jc:trillian.mit.edu>
B: Preston "Twenty four Country Dances for the Year 1796" p.127 #2
F: http://www.vwml.org/browse/browse-collections-dance-tune-books/browse-prestons1796# 2014-8-10
M: C|
L: 1/8
K: A
f |\
e>A{f}e>c e>A{f}e>c | B<Bc>e f>BB>f |\
e>A{f}e>c c>ea>e | f>dB>e cAA :|
|: (e/f//g//) |\
a>ef>a e>ca>c | B<Bc>e f>BB>g |\
a>ef>a e>ca>f | {f}e>cB>e cAA :|
% - - - - - - - - - - - - - - - - - - - - - - - - -
%%begintext align
%% Set & half right & left .| half right & left
%% back again :| lead down the middle and up
%% again :|. Allemande :|:
%%endtext
% - - - - - - - - - - - - - - - - - - - - - - - - -

%%sep 1 1 500
%%sep 1 1 500
